mimes/scalable/text-x-java-source.svg

<?xml version="1.0" encoding="UTF-8" standalone="no"?>
<svg
   xmlns:dc="http://purl.org/dc/elements/1.1/"
   xmlns:cc="http://creativecommons.org/ns#"
   xmlns:rdf="http://www.w3.org/1999/02/22-rdf-syntax-ns#"
   xmlns:svg="http://www.w3.org/2000/svg"
   xmlns="http://www.w3.org/2000/svg"
   xmlns:sodipodi="http://sodipodi.sourceforge.net/DTD/sodipodi-0.dtd"
   xmlns:inkscape="http://www.inkscape.org/namespaces/inkscape"
   width="48"
   height="48"
   viewBox="0 0 12.7 12.7"
   version="1.1"
   id="svg4"
   sodipodi:docname="text-x-java-source.svg"
   inkscape:version="0.92.3 (2405546, 2018-03-11)">
  <metadata
     id="metadata10">
    <rdf:RDF>
      <cc:Work
         rdf:about="">
        <dc:format>image/svg+xml</dc:format>
        <dc:type
           rdf:resource="http://purl.org/dc/dcmitype/StillImage" />
        <dc:title></dc:title>
      </cc:Work>
    </rdf:RDF>
  </metadata>
  <defs
     id="defs8" />
  <sodipodi:namedview
     pagecolor="#ffffff"
     bordercolor="#666666"
     borderopacity="1"
     objecttolerance="10"
     gridtolerance="10"
     guidetolerance="10"
     inkscape:pageopacity="0"
     inkscape:pageshadow="2"
     inkscape:window-width="1366"
     inkscape:window-height="715"
     id="namedview6"
     showgrid="false"
     showguides="true"
     inkscape:guide-bbox="true"
     inkscape:snap-global="true"
     inkscape:zoom="3.8817216"
     inkscape:cx="24"
     inkscape:cy="24"
     inkscape:window-x="0"
     inkscape:window-y="27"
     inkscape:window-maximized="1"
     inkscape:current-layer="svg4" />
  <path
     inkscape:connector-curvature="0"
     style="opacity:1;fill:#ff2a2a;fill-opacity:1;fill-rule:nonzero;stroke:none;stroke-width:0.50711805;stroke-linecap:round;stroke-linejoin:bevel;stroke-miterlimit:4;stroke-dasharray:none;stroke-opacity:1"
     d="m 7.3492433,0.0566603 c -0.040983,0 -0.078161,0.0127642 -0.1049033,0.0330729 C 7.218411,0.1094229 7.202933,0.1367362 7.201965,0.1667311 7.3445127,0.2235372 7.4736634,0.30302596 7.5802366,0.40909358 7.76971,0.59766786 7.8931916,0.85276088 7.9104491,1.1392812 h 0.00672 v 0.068213 0.1441772 0.1369425 0.1927531 c 0,0.2812905 0.2266883,0.5079794 0.5079795,0.5079794 h 0.1183391 l -5.291e-4,0.00568 h 1.6924064 c 0.329951,0 0.613684,0.1491999 0.819072,0.3731038 V 1.141865 0.56463964 c 0,-0.14064565 -0.05654,-0.26789289 -0.148312,-0.35966798 C 10.814345,0.11319656 10.687101,0.0566603 10.546455,0.0566603 H 9.0462851 7.7864139 Z"
     id="path965" />
  <path
     style="opacity:1;fill:#333333;fill-opacity:1;fill-rule:nonzero;stroke:none;stroke-width:0.50711805;stroke-linecap:round;stroke-linejoin:bevel;stroke-miterlimit:4;stroke-dasharray:none;stroke-opacity:1"
     d="m 2.9460732,0.55206094 c -0.6285519,0 -1.134298,0.50626306 -1.134298,1.13481446 v 9.9012056 c 0,0.628551 0.5057461,1.134814 1.134298,1.134814 h 4.2855261 2.522327 c 0.6285527,0 1.1342987,-0.506263 1.1342987,-1.134814 V 3.6728008 h -0.01292 C 10.810197,3.1070068 10.337709,2.6687276 9.7539263,2.6687276 h -1.692403 v 0 l -0.11781,-0.00568 C 7.6627483,2.6495013 7.4357343,2.4363589 7.4357343,2.1550682 V 1.9623107 1.8253682 1.6811909 1.612978 h -0.0067 C 7.3941823,1.0346118 6.9321933,0.5804805 6.3510473,0.55464473 l -5.29e-4,-0.002585 h -0.02015 z"
     id="path833"
     inkscape:connector-curvature="0" />
  <path
     style="opacity:1;fill:#cccccc;fill-opacity:1;fill-rule:nonzero;stroke:none;stroke-width:0.50711805;stroke-linecap:round;stroke-linejoin:bevel;stroke-miterlimit:4;stroke-dasharray:none;stroke-opacity:1"
     d="m 6.4269983,1.0791605 c 0.263277,0.019482 0.470254,0.2359637 0.470255,0.504362 v 0.2563151 0.125057 0.092501 c 0,0.5757933 0.427721,1.0388807 0.982369,1.1136271 v 0 l 1.962134,0.026872 c 0.2812647,0.00385 0.5079787,0.2266886 0.5079797,0.5079793 V 5.7894678 11.68575 c 0,0.281291 -0.226688,0.50798 -0.5079797,0.50798 H 7.2315993 2.8582236 c -0.281291,0 -0.50798,-0.226689 -0.50798,-0.50798 V 1.5892069 c 0,-0.2812907 0.226689,-0.5079794 0.50798,-0.5079794 h 3.5692907 z"
     id="path901-5"
     inkscape:connector-curvature="0" />
  <path
     inkscape:connector-curvature="0"
     style="fill:#ff2a2a;fill-opacity:1;fill-rule:evenodd;stroke-width:0.35277778"
     d="M 7.0664286,4.5435138 C 7.3667789,5.6658758 6.0101205,6.0026409 5.520075,6.7004477 5.1858505,7.176944 5.6826708,7.6875959 6.3601531,8.2679719 6.0959319,7.7011458 5.1988357,7.2040428 6.361844,6.3346074 7.8093974,5.2506356 7.0664255,4.5435138 7.0664255,4.5435138 Z m 0.8968173,1.3871444 c 0,0 -2.4502278,0.5798127 -1.2804418,1.8579954 0.3455159,0.3771321 -0.090614,0.7164373 -0.090614,0.7164373 0,0 0.8762105,-0.4296369 0.4742377,-0.9671056 C 6.6892971,7.0389062 6.4027786,6.7888023 7.9632459,5.9306582 Z M 8.434096,8.2154675 c -0.09659,-0.00427 -0.2009874,0.00988 -0.3082557,0.04573 -0.07453,0.024838 -0.1151706,0.082993 -0.1151706,0.082993 0,0 0.047145,-0.017781 0.1532731,-0.038109 0.4335894,-0.085815 1.0548973,0.548478 -0.2887758,1.2101524 -0.0046,0.015799 -0.027105,0.033877 -0.027105,0.033877 C 9.4169967,9.1588646 9.1102424,8.2455733 8.4340835,8.2154706 Z m -2.980075,0.062665 c -0.1708528,0.00444 -0.5707792,0.04065 -1.0382419,0.2540572 -0.7339397,0.3364831 1.8173465,0.4897637 3.1384372,0.160056 0.1377541,-0.088071 0.3277306,-0.1651359 0.3277306,-0.1651359 0,0 -0.5422668,0.09033 -1.0797364,0.1354962 C 6.1427942,8.714544 5.4359546,8.723862 5.0814057,8.678701 4.2413268,8.5725629 5.5420936,8.2789865 5.5420936,8.2789865 c 0,0 -0.031122,-0.00233 -0.088074,-8.672e-4 z M 5.2397668,9.0487704 C 4.0270738,9.4304188 5.9147089,9.8640074 7.6084149,9.3942865 7.4277514,9.3333127 7.3128626,9.2249159 7.3128626,9.2249159 6.4863348,9.3739619 6.00758,9.3700095 5.4023628,9.3112946 4.9326418,9.2661296 5.2397668,9.0487704 5.2397668,9.0487704 Z M 5.4116781,9.7923069 C 4.3118983,10.085881 6.0798448,10.686584 7.4822338,10.117498 7.2518895,10.033942 7.0867531,9.9345782 7.0867531,9.9345782 6.4634685,10.04749 6.1724338,10.056525 5.6056073,9.9955517 5.1381447,9.9436112 5.4116781,9.7923069 5.4116781,9.7923069 Z M 4.6994746,10.284328 c -0.4732495,-0.01723 -1.5460708,0.431049 -0.6292113,0.57332 2.8567167,0.438106 5.2070157,-0.198728 4.4663011,-0.514886 0,0 0.2009875,0.158361 -0.2235679,0.280308 -0.8084626,0.232602 -3.364547,0.302888 -4.0759031,0.0093 -0.2551846,-0.106131 0.2238511,-0.251225 0.3751555,-0.282841 0.1558215,-0.03162 0.2455877,-0.0271 0.2455877,-0.0271 -0.035568,-0.02371 -0.090755,-0.03565 -0.1583617,-0.03811 z m 4.2893088,0.40395 c 0,0 -0.088065,0.219052 -1.063647,0.39294 -1.0997788,0.19647 -2.4575662,0.173887 -3.2637699,0.04742 0,0 0.1654185,0.129286 1.0145297,0.181226 1.2872164,0.07904 3.2677229,-0.04347 3.3128872,-0.62159 z"
     id="path21" />
</svg>

<?xml version="1.0" encoding="UTF-8" standalone="no"?><svg xmlns:dc="http://purl.org/dc/elements/1.1/" xmlns:cc="http://creativecommons.org/ns#" xmlns:rdf="http://www.w3.org/1999/02/22-rdf-syntax-ns#" xmlns="http://www.w3.org/2000/svg" width="48" height="48" viewBox="0 0 12.7 12.7"><metadata><rdf:RDF><cc:Work><dc:format>image/svg+xml</dc:format><dc:type rdf:resource="http://purl.org/dc/dcmitype/StillImage"/><dc:title/></cc:Work></rdf:RDF></metadata><path d="M7.35.06a.17.17 0 0 0-.1.03.1.1 0 0 0-.05.08 1.12 1.12 0 0 1 .71.97v.55c0 .27.23.5.52.5h1.81c.33 0 .6.15.81.38V.56a.5.5 0 0 0-.5-.5H7.79z" fill="#ff2a2a"/><path d="M2.95.55c-.63 0-1.14.5-1.14 1.14v9.9c0 .63.5 1.13 1.14 1.13H9.75c.63 0 1.14-.5 1.14-1.13V3.67h-.01c-.07-.56-.54-1-1.13-1H7.94a.52.52 0 0 1-.5-.51V1.6h-.01A1.12 1.12 0 0 0 6.35.55h-.02z" fill="#333"/><path d="M6.43 1.08a.5.5 0 0 1 .47.5v.48c0 .57.42 1.04.98 1.11l1.96.03c.28 0 .51.22.51.5v7.99a.5.5 0 0 1-.5.5H2.85a.5.5 0 0 1-.51-.5V1.59c0-.28.23-.5.5-.5h3.58z" fill="#ccc"/><path d="M7.07 4.54C7.37 5.67 6 6 5.52 6.7c-.33.48.16.99.84 1.57-.26-.57-1.16-1.07 0-1.94 1.45-1.08.7-1.79.7-1.79zm.9 1.4S5.5 6.5 6.67 7.78c.35.38-.09.72-.09.72s.88-.43.48-.97c-.38-.5-.67-.75.9-1.6zm.46 2.28c-.1 0-.2 0-.3.04-.08.03-.12.08-.12.08l.15-.03c.44-.09 1.06.54-.28 1.2 0 .02-.03.04-.03.04 1.57-.4 1.26-1.3.58-1.33zm-2.98.06c-.17 0-.57.04-1.03.25-.74.34 1.81.5 3.13.16.14-.09.33-.16.33-.16s-.54.09-1.08.13c-.66.05-1.36.06-1.72.02-.84-.1.46-.4.46-.4h-.09zm-.21.77c-1.21.38.67.81 2.37.34a.88.88 0 0 1-.3-.17c-.82.15-1.3.15-1.9.1-.48-.05-.17-.27-.17-.27zm.17.74c-1.1.3.67.9 2.07.33a2.5 2.5 0 0 1-.4-.19 4.3 4.3 0 0 1-1.47.07c-.47-.06-.2-.2-.2-.2zm-.71.5c-.47-.02-1.55.43-.63.57 2.86.44 5.2-.2 4.47-.52 0 0 .2.16-.23.28-.8.24-3.36.3-4.07.01-.26-.1.22-.25.37-.28.16-.03.25-.03.25-.03a.31.31 0 0 0-.16-.04zm4.29.4s-.09.22-1.06.4c-1.1.19-2.46.17-3.27.04 0 0 .17.13 1.02.18 1.28.08 3.26-.04 3.3-.62z" fill="#ff2a2a" fill-rule="evenodd"/></svg>
